!!!OTL: Changgong ku
!!!ARE: Asia, China,ÿJiangsu, Nanjing
!! III, 470
!!!SCT: C1578
!!!YEM: Copyright 1995, estate of Helmut Schaffrath.
**kern
*ICvox
*Ivox
*M2/4
*k[f#]
*G:
{8g
8g
8a
16a
16b
=1
8.dd
16ee
4dd
=2
16b
8b
16g
16a
16b
16dd
16dd
=3
8.a
16g
4e}
=4
{16dd
16dd
16b
16dd
8e
8g
=5
8.a
16b
16a
16g
8e
=6
2d}
=7
{8e
16e
16d
8e
16e
16g
=8
8.a
16b
4dd
=9
16ee
8ee
16dd
16b
16b
16b
16dd
=10
8.a
16b
4g}
=11
{16dd
16dd
16b
16dd
8e
8g
=12
8.a
16b
16a
16g
8e
=13
2d}
==
!!!AGN: Xiaodiao
!!!AMT: simple duple
!!!AIN: vox
!!!EED: Helmut Schaffrath
!!!EEV: 1.0
*-
